src/lib/packages/icons/src/assets/filled/ping-pong.svg

<svg width="24" height="24" viewBox="0 0 24 24" fill="none" xmlns="http://www.w3.org/2000/svg">
<path d="M21.5 19.0001C21.5 20.3801 20.38 21.5001 19 21.5001C17.62 21.5001 16.5 20.3801 16.5 19.0001C16.5 17.6201 17.62 16.5001 19 16.5001C20.38 16.5001 21.5 17.6201 21.5 19.0001ZM18.12 4.88006C15.79 2.55006 12.32 2.20006 9.64 4.88006L8.67999 5.86006C7.88999 6.65006 7.46 7.25006 7.22 7.80006C7.17 7.91006 7.19999 8.04006 7.28999 8.13006L14.88 15.7201C14.97 15.8101 15.09 15.84 15.21 15.79C15.76 15.55 16.36 15.1301 17.15 14.3301L18.13 13.3701C20.81 10.6901 20.46 7.22005 18.13 4.89005L18.12 4.88006ZM7.08 10.0301C6.97 9.92005 6.92999 10.0201 6.92999 10.0901C6.92999 10.6201 6.99999 11.1701 7.14999 11.7001C7.42999 12.7001 7.21 13.7901 6.47 14.5301L3.14 17.8601C2.95 18.0501 2.96 18.3501 3.14 18.5301L4.47999 19.8701C4.65999 20.0501 4.95999 20.0601 5.14999 19.8701L8.47999 16.54C9.21999 15.8 10.31 15.5801 11.31 15.8601C11.84 16.0101 12.39 16.0801 12.92 16.0801C12.99 16.0801 13.08 16.0301 13 15.9501L7.08 10.0301Z" fill="currentColor"/>
</svg>

<svg xmlns="http://www.w3.org/2000/svg" width="24" height="24" fill="none"><path fill="currentColor" d="M21.5 19a2.5 2.5 0 0 1-5 0 2.5 2.5 0 0 1 5 0ZM18.12 4.88c-2.33-2.33-5.8-2.68-8.48 0l-.96.98c-.79.79-1.22 1.39-1.46 1.94-.05.11-.02.24.07.33l7.59 7.59c.09.09.21.12.33.07.55-.24 1.15-.66 1.94-1.46l.98-.96c2.68-2.68 2.33-6.15 0-8.48l-.01-.01ZM7.08 10.03c-.11-.11-.15-.01-.15.06 0 .53.07 1.08.22 1.61.28 1 .06 2.09-.68 2.83l-3.33 3.33c-.19.19-.18.49 0 .67l1.34 1.34c.18.18.48.19.67 0l3.33-3.33c.74-.74 1.83-.96 2.83-.68.53.15 1.08.22 1.61.22.07 0 .16-.05.08-.13l-5.92-5.92Z"/></svg>
